packages/core/src/svgs/tokens/mono/JULD.svg

<svg width="24" height="24" viewBox="0 0 24 24" fill="none" xmlns="http://www.w3.org/2000/svg">
<path fill-rule="evenodd" clip-rule="evenodd" d="M15.9337 6.86158C15.8669 6.07273 15.6892 4.48393 15.5448 4.46726C15.4003 4.44504 14.5615 6.10607 14.1559 6.93935L14.117 7.02823C13.8448 7.06157 13.2782 7.23934 13.1449 7.72265C13.0171 8.2004 13.4838 8.4615 13.7337 8.53371C14.2837 8.8448 15.167 9.81138 14.3059 11.1724C14.3615 10.878 14.2171 10.267 13.1726 10.1559C13.1893 10.3947 13.1616 10.9614 12.9171 11.3114L12.7893 11.4835C12.4172 11.9946 11.7338 12.9335 11.7894 13.6779C11.8672 14.5112 12.6838 14.9167 13.2559 14.25C13.2671 14.3112 13.2559 14.4724 13.1337 14.6056L13.0559 14.7001C12.8894 14.939 12.5504 15.4001 11.4506 15.3445C11.4227 15.4001 11.3728 15.5445 11.3784 15.6611C11.3838 15.7999 11.495 16.2389 11.7561 16.6277C12.0171 17.011 12.2116 17.6388 12.1894 17.9054C13.0393 17.9054 14.967 17.7 15.917 16.8888C15.5211 16.4205 15.2549 15.8565 15.1447 15.2532C15.0346 14.6498 15.0844 14.0281 15.2892 13.4501C14.8004 13.3391 13.8115 12.8724 13.7838 11.9058C13.8004 11.8614 13.8504 11.7836 13.917 11.7724C13.9782 11.7613 14.0115 11.8558 14.0227 11.9058C14.0281 12.2558 14.3115 13.0168 15.3837 13.2669C16.4614 13.5168 17.1336 13.5445 17.328 13.5335C17.9169 13.6113 19.1723 13.9056 19.4834 14.5112C19.7945 15.1111 20.3834 14.9111 20.6389 14.739L20.0667 14.239C20.0278 14.1834 20.0001 14.0835 20.1556 14.1278C20.3112 14.1723 20.7778 14.4 20.9889 14.5112C21.5055 14.1112 22.3888 13.1002 21.811 12.2447L19.0501 9.93918C18.7381 9.90769 18.4477 9.76536 18.2316 9.53813C18.0156 9.31081 17.8881 9.01359 17.8725 8.70037C17.5835 8.85036 16.9057 8.79481 16.4725 7.3671C16.4114 7.30044 16.1669 7.16712 15.7114 7.14489C15.3472 7.1276 14.9823 7.16316 14.6281 7.25044C14.8058 6.66714 15.217 5.50054 15.3947 5.48388C15.5726 5.47276 15.617 5.59498 15.6448 5.70608L15.6669 5.7672C15.7058 5.84497 15.6003 5.80052 15.5448 5.7672C15.5337 5.7172 15.4892 5.62276 15.4503 5.63387C15.2622 6.04975 15.0991 6.47639 14.9615 6.91157C15.2818 6.85152 15.6089 6.83469 15.9337 6.86158ZM20.8889 12.3891C20.7944 12.4724 20.6223 12.7169 20.6945 13.0001C20.7834 13.3668 21.0778 13.4057 21.35 13.1502C21.1167 13.1668 20.7001 13.039 20.8889 12.3891Z" fill="white"/>
<path d="M3.00116 18.9832C2.55673 19.0054 2.15676 18.6165 2.01232 18.4165C1.91233 19.0776 2.44563 19.5165 2.72339 19.6497C2.99005 19.6886 3.60112 19.7498 3.93444 19.7165C4.35108 19.6609 4.44552 19.3442 4.43441 19.2165C4.43441 19.0887 4.33442 18.9054 4.17331 18.8887C4.01222 18.872 3.57335 18.9609 3.00671 18.9832H3.00116Z" fill="white"/>
<path d="M4.4454 18.4664C4.58983 18.133 5.05092 18.0163 5.25647 17.9998C4.61761 19.0997 5.36757 19.6496 5.82867 19.783C5.612 20.0608 5.37313 20.3107 4.9176 20.4662C4.46207 20.6163 3.60656 20.2829 3.33435 20.244C3.11214 20.2163 2.82882 20.4107 2.71216 20.5163C2.85104 20.0107 3.18435 19.8829 3.33435 19.8829C3.45656 19.9164 3.77877 19.9607 4.0732 19.8829C4.43429 19.7886 4.52873 19.4386 4.57317 19.3052C4.56649 19.0213 4.52355 18.7394 4.4454 18.4664Z" fill="white"/>
<path d="M5.46186 18.0444C5.53963 18.1111 6.1896 18.2499 6.50069 18.3111C6.01738 18.561 5.76739 19.2444 5.70629 19.561C4.85078 19.2055 5.18409 18.4 5.46186 18.0444Z" fill="white"/>
<path d="M13.989 6.83386L14.6223 5.48947C10.1781 4.23955 9.57815 7.74491 9.82814 9.65043C10.0504 10.3337 10.5226 11.8002 10.5948 12.1891C10.6726 12.578 10.3836 13.439 10.2337 13.8168C11.8225 12.1336 11.5891 10.6115 11.6059 10.3448C11.628 10.0782 11.5337 9.18372 11.4892 9.02263C11.4621 8.81611 11.4621 8.60694 11.4892 8.40044C11.578 7.60047 12.2558 6.87829 12.4336 6.8394C12.5836 6.80608 12.5502 6.90607 12.5168 6.96163C12.228 7.22272 11.6781 7.95045 11.778 8.76153C11.9002 9.78368 13.639 10.0948 13.9335 10.1948C14.1724 10.2781 14.3668 10.5503 14.4334 10.6725C14.567 10.2826 14.5517 9.85731 14.3907 9.4779C14.2298 9.09857 13.9344 8.79203 13.5612 8.61709C13.3835 8.60598 13.0168 8.4282 12.9557 7.81158C12.9001 7.20049 13.6224 6.90607 13.989 6.8394V6.83386Z" fill="white"/>
<path d="M16.1668 6.93954L16.0557 5.92849C16.7945 5.84517 17.4446 6.18404 17.6723 6.3618L16.6557 7.13954C16.5169 7.02844 16.2724 6.95621 16.1723 6.93954H16.1668Z" fill="white"/>
<path d="M19.9222 5.66698C19.8635 5.41668 19.8635 5.1562 19.9222 4.9059L21.2499 3.81152C21.3666 3.81152 21.361 3.88374 21.3387 3.92262L19.9222 5.66698Z" fill="white"/>
<path d="M18.9058 5.65046L19.7557 5.00049C19.6963 5.29379 19.6963 5.59603 19.7557 5.88932L18.9891 6.82261C18.8224 6.4893 18.8669 5.90045 18.9058 5.656V5.65046Z" fill="white"/>
<path d="M18.0389 8.00028C17.8279 7.73363 17.8556 6.88368 17.8945 6.48926L18.7055 5.83374C18.6629 6.23405 18.7201 6.63871 18.8722 7.01145L18.0389 8.00028Z" fill="white"/>
<path d="M15.6836 9.08374C16.1835 9.12817 16.9168 9.55037 17.2168 9.75595C17.6668 10.1059 17.6391 10.8504 17.1224 10.6503C16.6002 10.4503 15.7225 9.0893 15.6836 9.08374Z" fill="white"/>
<path d="M17.7223 9.6947C17.4724 9.61149 16.9447 9.80592 16.7224 9.91701C16.8891 10.1948 17.1835 10.3392 17.278 10.3892C17.3669 10.4281 17.7223 10.3725 17.8946 10.3392L17.7223 9.6947Z" fill="white"/>
<path d="M17.0114 9.92798C17.0114 10.0113 17.1113 10.1724 17.4669 10.1503C17.0391 10.3058 16.9835 10.0669 17.0114 9.92798Z" fill="white"/>
<path d="M13.8893 12.3891C14.156 13.028 14.8893 13.3613 15.2893 13.4502C15.1183 13.9443 15.0575 14.47 15.1113 14.9901C15.165 15.5103 15.3319 16.0123 15.6004 16.4611C13.8227 15.7112 13.6949 13.5724 13.8893 12.3835V12.3891Z" fill="white"/>
<path d="M17.5889 8.61134C16.8889 8.22247 16.6889 7.65029 16.6777 7.41697L17.6944 6.60034C17.6333 6.9392 17.6 7.7225 17.9444 8.14469L17.5889 8.60579V8.61134Z" fill="white"/>
<path d="M18.0279 8.41125L18.5167 7.81128C18.6222 8.05016 18.6056 8.92789 18.6056 9.18343C18.6056 9.38342 18.7444 9.61125 18.8111 9.70004C18.5501 9.61164 18.3289 9.43379 18.1865 9.19788C18.0442 8.96198 17.9899 8.68332 18.0334 8.41125H18.0279Z" fill="white"/>
<path d="M10.1392 11.2224C9.37264 9.40584 9.47263 8.11147 9.62263 7.69482C9.0185 7.94242 8.50022 8.36172 8.13193 8.90082C7.76363 9.43996 7.5615 10.0752 7.55052 10.728C7.53385 11.0892 7.57273 11.9946 7.86161 12.7278C8.15048 13.4612 7.93939 14.2278 7.79495 14.5222C7.52274 14.8833 6.81167 15.3556 6.12836 14.3722C6.01958 14.1118 5.96356 13.8324 5.96356 13.55C5.96356 13.2679 6.01958 12.9884 6.12836 12.7278C5.68395 13.1167 4.82288 14.1 4.96176 14.8945C5.13953 15.8944 5.3173 16.8277 7.02832 16.9222C8.39492 17 8.97266 15.8388 9.08376 15.25V13.5556C8.99488 12.889 9.07265 11.489 10.1392 11.2224Z" fill="white"/>
<path d="M9.33417 12.5388C9.35702 12.2849 9.45633 12.0438 9.61898 11.8474C9.78162 11.651 10 11.5087 10.2453 11.439C10.7008 13.1722 9.85081 14.0665 9.80081 14.2332C9.75638 14.3721 9.84526 14.4054 9.8897 14.4054L10.273 14.0665C10.3286 14.8331 10.9674 15.211 11.2841 15.3054C11.0286 15.9164 11.6229 16.7497 11.934 17.4441C12.1785 17.9997 11.8285 18.4941 11.6229 18.6663C11.6532 18.411 11.6238 18.1523 11.537 17.9103C11.4502 17.6684 11.3086 17.4498 11.1229 17.272C11.0952 17.2164 10.8896 16.9831 10.273 16.5331C9.79313 16.1603 9.46216 15.6284 9.33973 15.0331C9.3175 14.4887 9.28418 13.2332 9.33973 12.5332L9.33417 12.5388Z" fill="white"/>
<path d="M10.4338 13.889C11.9616 12.4334 11.9337 10.128 11.7227 9.16138C11.8627 9.40153 12.0501 9.61064 12.2736 9.7759C12.497 9.94104 12.752 10.059 13.0225 10.1224C13.0614 10.4779 12.7836 11.289 12.5004 11.6001C12.2671 11.8557 11.9227 12.5224 11.7782 12.8223C11.2282 14.3111 12.156 14.7722 12.6893 14.8222C11.156 15.6722 10.5449 14.5611 10.4338 13.8944V13.889Z" fill="white"/>
<path d="M8.76726 16.3111C8.97281 16.0834 9.15613 15.5723 9.22834 15.3501C9.33946 15.8834 9.77276 16.3444 9.97278 16.5056C9.96165 16.5056 9.9172 16.6166 9.88387 17.0167C9.83388 17.5166 10.256 17.7944 10.2171 18.5167C10.1782 19.2276 9.83386 19.6998 9.31723 19.8332C8.90058 19.9443 8.37839 19.7888 8.17285 19.6998C9.61166 19.7054 9.05058 17.9555 8.90614 17.4444C8.81162 17.0742 8.76494 16.6932 8.76726 16.3111Z" fill="white"/>
<path d="M11.2283 17.6887C11.1839 17.4943 10.4673 16.911 10.1173 16.6499C9.88396 17.2665 10.3783 17.872 10.3839 18.483C10.3839 18.972 10.0784 19.5052 9.92285 19.7052C11.0338 19.1775 11.2839 17.9276 11.2283 17.6887Z" fill="white"/>
<path d="M8.60102 16.7944V16.4889C8.15223 16.8872 7.56909 17.1009 6.96912 17.0863C6.36916 17.0719 5.79697 16.8306 5.36785 16.4111C4.16792 16.6889 4.17347 17.8111 4.32347 18.3332C5.2123 17.3333 5.61228 18.1555 6.86777 18.1666C7.87328 18.1721 8.44547 17.2555 8.60102 16.7944Z" fill="white"/>
<path d="M8.91763 17.9996L8.63431 17.0552C8.48896 17.4373 8.22999 17.7658 7.89228 17.9961C7.55457 18.2266 7.15434 18.348 6.74552 18.344C6.06778 18.5662 5.90112 19.3329 5.90112 19.6883C6.06976 19.5076 6.27479 19.3647 6.50268 19.269C6.73057 19.1732 6.97616 19.1268 7.22328 19.1329C7.46214 19.1495 8.06768 19.1329 8.53432 18.9106C9.00096 18.7051 8.98429 18.2162 8.92319 17.9996H8.91763Z" fill="white"/>
<path d="M8.46177 19.5218C8.76732 19.483 8.92287 18.983 8.96175 18.7385C8.72287 19.0997 8.21734 19.2496 7.98958 19.2774H7.03407C6.68965 19.2774 6.17856 19.5717 6.00636 19.7996C5.86746 19.9773 5.5286 20.3217 5.37861 20.4661C5.35083 20.5774 5.45638 20.794 5.50637 20.8885C5.59795 20.6467 5.75617 20.4361 5.96265 20.2806C6.16914 20.1254 6.41544 20.0316 6.67298 20.0106H8.46177C8.14648 19.9745 7.8576 19.8171 7.65626 19.5717C7.79515 19.5717 8.15068 19.5663 8.46177 19.5218Z" fill="white"/>
<path d="M4.11762 17.7665C3.40099 17.8387 3.0399 17.2443 2.95102 16.9443C2.75658 18.4553 3.71208 18.7443 4.21205 18.6942C4.11206 18.5664 4.1065 18.0276 4.11762 17.7665Z" fill="white"/>
<path d="M5.88965 3.11157C5.88965 3.55357 6.06524 3.97748 6.37777 4.29001C6.69032 4.60256 7.11422 4.77815 7.55622 4.77815V9.55568C8.02286 8.34463 9.18392 7.72798 9.77833 7.50022V4.77815H12.2671C13.1893 4.77815 14.0725 4.95036 14.8781 5.267C15.0706 4.85036 15.3445 4.47638 15.6836 4.16706C16.0058 4.28372 16.1335 5.33367 16.1614 5.85031C16.769 5.79025 17.3785 5.94558 17.8834 6.28917L18.9722 5.467C17.457 3.95806 15.4055 3.11109 13.267 3.11157H5.88965ZM19.7889 6.40028L18.7612 7.6891C18.8167 7.78354 18.8556 8.68905 18.8501 9.02237C18.8539 9.24322 18.9236 9.45794 19.05 9.63902L21.4444 11.6889V11.4111C21.4444 9.53351 20.8278 7.80021 19.7889 6.40028ZM20.8611 15.1109L20.7444 15.1387C19.6445 15.3665 19.3723 14.8499 19.2445 14.5942L19.189 14.4999C19.1112 14.3888 18.8223 14.2498 18.6167 14.1721C18.0406 15.363 17.1378 16.3657 16.0136 17.063C14.8894 17.7604 13.59 18.1237 12.2671 18.1108H12.106C11.8838 18.794 11.6338 18.9496 11.4838 18.9386C11.5616 18.5497 11.5504 18.3997 11.4838 18.2831C11.0393 19.7273 9.31724 20.2663 8.88948 20.3106L8.84505 20.3329H13.267C16.7112 20.3329 19.6556 18.1718 20.8611 15.1109ZM7.55622 14.5276C7.90066 14.0833 7.99509 13.5499 7.92287 13.2777L7.55622 12.0889V14.5332V14.5276Z" fill="white"/>
</svg>

<svg xmlns="http://www.w3.org/2000/svg" width="24" height="24" fill="none" viewBox="0 0 24 24">
    <path fill="#fff" fill-rule="evenodd" d="M15.934 6.862c-.067-.79-.245-2.378-.39-2.395-.144-.022-.982 1.64-1.388 2.472l-.039.09c-.272.033-.839.21-.972.694-.128.477.339.738.589.81.55.312 1.433 1.278.572 2.64.056-.295-.089-.906-1.133-1.017.016.239-.011.805-.256 1.155l-.128.172c-.372.512-1.055 1.45-1 2.195.078.833.895 1.239 1.467.572a.46.46 0 0 1-.122.356l-.078.094c-.167.239-.506.7-1.605.645a.8.8 0 0 0-.073.316c.006.139.117.578.378.967.261.383.456 1.01.433 1.277.85 0 2.778-.205 3.728-1.016a3.51 3.51 0 0 1-.628-3.439c-.489-.11-1.477-.578-1.505-1.544.016-.045.066-.122.133-.134.061-.01.095.084.106.134.005.35.289 1.11 1.36 1.36 1.078.25 1.75.278 1.945.268.589.077 1.844.372 2.155.977.311.6.9.4 1.156.228l-.572-.5c-.04-.056-.067-.155.089-.111.155.044.622.272.833.383.517-.4 1.4-1.41.822-2.266l-2.76-2.306A1.31 1.31 0 0 1 17.872 8.7c-.29.15-.967.095-1.4-1.333-.062-.067-.306-.2-.762-.222a3.8 3.8 0 0 0-1.083.105c.178-.583.589-1.75.767-1.766.178-.011.222.111.25.222l.022.061c.039.078-.067.034-.122 0-.011-.05-.056-.144-.095-.133q-.281.624-.489 1.278c.32-.06.648-.077.973-.05m4.955 5.527c-.095.083-.267.328-.194.611.088.367.383.406.655.15-.233.017-.65-.111-.461-.76" clip-rule="evenodd"/>
    <path fill="#fff" d="M3.001 18.983c-.444.022-.844-.367-.989-.567-.1.662.434 1.1.711 1.234.267.039.878.1 1.211.067.417-.056.512-.373.5-.5 0-.128-.1-.312-.26-.328-.162-.017-.6.072-1.167.094z"/>
    <path fill="#fff" d="M4.445 18.466c.145-.333.606-.45.811-.466-.638 1.1.112 1.65.573 1.783-.217.278-.456.528-.911.683-.456.15-1.311-.183-1.584-.222-.222-.028-.505.167-.622.272.139-.505.472-.633.622-.633.123.033.445.078.74 0 .36-.094.455-.444.5-.578a3.3 3.3 0 0 0-.129-.839"/>
    <path fill="#fff" d="M5.462 18.044c.078.067.728.206 1.039.267-.484.25-.734.933-.795 1.25-.855-.355-.522-1.161-.244-1.517m8.527-11.21.633-1.345C10.178 4.24 9.578 7.745 9.828 9.65c.222.684.695 2.15.767 2.54.078.388-.211 1.249-.361 1.627 1.588-1.683 1.355-3.206 1.372-3.472.022-.267-.072-1.161-.117-1.322a2.4 2.4 0 0 1 0-.623c.089-.8.767-1.522.945-1.56.15-.034.116.066.083.122-.289.26-.839.988-.739 1.8.122 1.022 1.861 1.333 2.156 1.433.238.083.433.355.5.477a1.67 1.67 0 0 0-.873-2.055c-.178-.011-.544-.189-.605-.805-.056-.612.666-.906 1.033-.973zm2.178.106-.111-1.012a2.42 2.42 0 0 1 1.616.434l-1.016.778a1.25 1.25 0 0 0-.484-.2zm3.755-1.273a1.7 1.7 0 0 1 0-.761l1.328-1.094c.117 0 .111.072.089.11zm-1.016-.017.85-.65c-.06.294-.06.596 0 .89l-.767.933c-.167-.334-.122-.923-.083-1.167zM18.039 8c-.211-.266-.183-1.116-.145-1.51l.812-.656c-.043.4.014.805.166 1.177zm-2.355 1.084c.5.044 1.233.466 1.533.672.45.35.422 1.094-.095.894-.522-.2-1.4-1.56-1.438-1.566"/>
    <path fill="#fff" d="M17.722 9.695c-.25-.084-.777.11-1 .222.167.278.461.422.556.472.089.04.444-.016.617-.05z"/>
    <path fill="#fff" d="M17.011 9.928c0 .083.1.244.456.222-.428.156-.483-.083-.456-.222M13.89 12.39c.266.638 1 .971 1.4 1.06a3.58 3.58 0 0 0 .31 3.011c-1.777-.75-1.905-2.889-1.71-4.077zm3.699-3.779c-.7-.389-.9-.96-.911-1.194l1.016-.817c-.06.34-.094 1.123.25 1.545l-.355.46zm.439-.2.489-.6c.105.24.089 1.117.089 1.372 0 .2.138.428.205.517a1.17 1.17 0 0 1-.778-1.289zm-7.888 2.811c-.767-1.816-.667-3.11-.517-3.527a3.34 3.34 0 0 0-2.072 3.033c-.017.361.022 1.267.31 2 .29.733.078 1.5-.066 1.794-.272.361-.983.834-1.667-.15a2.13 2.13 0 0 1 0-1.644c-.444.389-1.305 1.372-1.166 2.167.178 1 .355 1.933 2.066 2.027C8.395 17 8.973 15.84 9.084 15.25v-1.694c-.09-.667-.011-2.067 1.055-2.334"/>
    <path fill="#fff" d="M9.334 12.539a1.26 1.26 0 0 1 .911-1.1c.456 1.733-.394 2.627-.444 2.794-.045.14.044.172.089.172l.383-.338c.056.766.694 1.144 1.011 1.238-.255.611.339 1.445.65 2.14.245.555-.105 1.05-.311 1.221a1.66 1.66 0 0 0-.5-1.394c-.028-.056-.233-.289-.85-.739a2.55 2.55 0 0 1-.933-1.5c-.022-.544-.056-1.8 0-2.5z"/>
    <path fill="#fff" d="M10.434 13.889c1.528-1.456 1.5-3.761 1.289-4.728a2.05 2.05 0 0 0 1.3.961c.038.356-.24 1.167-.523 1.478-.233.256-.577.922-.722 1.222-.55 1.49.378 1.95.911 2-1.533.85-2.144-.26-2.255-.928zm-1.667 2.422c.206-.228.39-.739.461-.96.111.532.545.993.745 1.155-.011 0-.056.11-.09.51-.05.5.373.778.334 1.5-.039.712-.383 1.184-.9 1.317-.416.111-.939-.044-1.144-.133 1.439.005.878-1.744.733-2.256a4.5 4.5 0 0 1-.139-1.133"/>
    <path fill="#fff" d="M11.228 17.689c-.044-.195-.76-.778-1.11-1.04-.234.617.26 1.223.266 1.834 0 .489-.306 1.022-.461 1.222 1.11-.527 1.36-1.777 1.305-2.016m-2.627-.895v-.305a2.37 2.37 0 0 1-3.233-.078c-1.2.278-1.195 1.4-1.045 1.922.89-1 1.29-.177 2.545-.166 1.005.005 1.577-.912 1.733-1.373"/>
    <path fill="#fff" d="m8.918 18-.284-.945a2 2 0 0 1-1.888 1.289c-.678.222-.845.989-.845 1.344a1.75 1.75 0 0 1 1.322-.555c.24.017.845 0 1.311-.222.467-.206.45-.695.39-.911z"/>
    <path fill="#fff" d="M8.462 19.522c.305-.039.46-.539.5-.784-.24.362-.745.512-.972.54h-.956c-.344 0-.855.294-1.028.522a9 9 0 0 1-.627.666c-.028.111.077.328.127.422a1.37 1.37 0 0 1 1.167-.877h1.789a1.22 1.22 0 0 1-.806-.44c.14 0 .495-.005.806-.05m-4.344-1.754c-.717.072-1.078-.523-1.167-.823-.194 1.511.761 1.8 1.261 1.75-.1-.128-.106-.666-.094-.927M5.89 3.112a1.667 1.667 0 0 0 1.666 1.666v4.778C8.023 8.345 9.184 7.728 9.778 7.5V4.778h2.49a7.1 7.1 0 0 1 2.61.489c.193-.417.466-.79.806-1.1.322.117.45 1.167.477 1.683a2.6 2.6 0 0 1 1.722.44l1.09-.823a8.08 8.08 0 0 0-5.706-2.355zM19.789 6.4 18.76 7.69c.056.094.095.999.09 1.332.003.221.073.436.199.617l2.394 2.05v-.278a8.38 8.38 0 0 0-1.655-5.01m1.072 8.71-.117.029c-1.1.228-1.372-.29-1.5-.545l-.055-.094c-.078-.111-.367-.25-.572-.328a6.98 6.98 0 0 1-6.35 3.939h-.161c-.222.683-.472.839-.622.828.078-.39.066-.54 0-.656-.445 1.444-2.167 1.983-2.595 2.028l-.044.022h4.422c3.444 0 6.389-2.161 7.594-5.222M7.555 14.53c.345-.445.44-.978.367-1.25l-.367-1.19v2.445z"/>
</svg>
